X: 34043
T: Reel De Gaspé
R: reel
M: 4/4
K: Dmajor
Ad|:f2ef e2d2|FAFA B2A2|g2fg f2e2|BABc B2A2|
f2ef e2d2|FAFA B2A2|g2 fg f2 e2|B2 c2 d4:|
|:e2f2g3e|f2g2a4|e2f2g2e2|BABc B2A2|
e2f2g3e|f2g2a4|e2f2gfe2|B2c2d4:|
|:e2cA e2cA|BA Bcdf g2|e2cA e2cA|BA^GB A2cd|
e2cA e2cA|BA Bcdf g2|e2cA e2cA|BA^GB A4:|

